src/svg/gist-secret.svg

<svg height="16" width="14" xmlns="http://www.w3.org/2000/svg" viewBox="0 0 14 16">
  <path d="M8 10.5l1 3.5H5l1-3.5-0.75-1.5h3.5l-0.75 1.5z m2-4.5H4l-2 1h10l-2-1z m-1-4l-2 1-2-1-1 3h6l-1-3z m4.03 7.75l-3.03-0.75 1 2-2 3h3.22c0.45 0 0.86-0.31 0.97-0.75l0.56-2.28c0.14-0.53-0.19-1.08-0.72-1.22z m-9.03-0.75L0.97 9.75c-0.53 0.14-0.86 0.69-0.72 1.22l0.56 2.28c0.11 0.44 0.52 0.75 0.97 0.75h3.22L3 11l1-2z" />
</svg>

<?xml version="1.0" encoding="UTF-8" standalone="no"?>
<svg width="14px" height="16px" viewBox="0 0 14 16" version="1.1" xmlns="http://www.w3.org/2000/svg" xmlns:xlink="http://www.w3.org/1999/xlink">
    <!-- Generator: Sketch 3.7.1 (28215) - http://www.bohemiancoding.com/sketch -->
    <title>gist-secret</title>
    <desc>Created with Sketch.</desc>
    <defs></defs>
    <g id="Octicons" stroke="none" stroke-width="1" fill="none" fill-rule="evenodd">
        <g id="gist-secret" fill="#000000">
            <path d="M8,10.5 L9,14 L5,14 L6,10.5 L5.25,9 L8.75,9 L8,10.5 L8,10.5 Z M10,6 L4,6 L2,7 L12,7 L10,6 L10,6 Z M9,2 L7,3 L5,2 L4,5 L10,5 L9,2 L9,2 Z M13.03,9.75 L10,9 L11,11 L9,14 L12.22,14 C12.67,14 13.08,13.69 13.19,13.25 L13.75,10.97 C13.89,10.44 13.56,9.89 13.03,9.75 L13.03,9.75 Z M4,9 L0.97,9.75 C0.44,9.89 0.11,10.44 0.25,10.97 L0.81,13.25 C0.92,13.69 1.33,14 1.78,14 L5,14 L3,11 L4,9 L4,9 Z" id="Shape"></path>
        </g>
    </g>
</svg>
